public/icons/tokens/renfil.svg

<svg width="256" height="256" viewBox="0 0 256 256" fill="none" xmlns="http://www.w3.org/2000/svg">
  <path fill-rule="evenodd" clip-rule="evenodd" d="M18.8719 194.93C20.9769 198.355 23.2387 201.674 25.6471 204.875L41.3708 195.797C38.897 192.641 36.592 189.345 34.4693 185.925L18.8719 194.93ZM224.936 75.9595C226.831 79.4833 228.54 83.1222 230.05 86.8632L245.775 77.7846C244.194 74.0815 242.443 70.4682 240.533 66.9543L224.936 75.9595ZM234.312 56.6897L218.68 65.7149C216.387 62.3832 213.915 59.1841 211.279 56.1316L227.109 46.9917C229.657 50.1055 232.062 53.3415 234.312 56.6897ZM28.7063 175.396L13.074 184.421C11.3029 180.821 9.69602 177.124 8.26315 173.343L24.096 164.202C25.4311 168.034 26.9723 171.77 28.7063 175.396ZM1.56467 107.928C2.41911 102.503 3.61437 97.1906 5.12784 92.0143L30.2446 77.5132C27.2607 83.2791 24.7719 89.3427 22.8346 95.6477L1.56467 107.928ZM46.2176 54.4348C61.5136 37.4412 82.0303 25.2401 105.242 20.3571L139.603 0.518788C135.781 0.175408 131.911 0 128 0C76.4741 0 32.0591 30.445 11.7626 74.3274L46.2176 54.4348ZM152.558 20.7517C146.268 19.3172 139.772 18.4219 133.122 18.1171L158.267 3.59946C163.6 4.89255 168.803 6.51972 173.852 8.45756L152.558 20.7517ZM107.832 254.42C114.402 255.46 121.138 256 128 256C182.58 256 229.181 221.839 247.589 173.732L218.522 190.513C200.253 216.918 170.729 234.941 136.885 237.646L107.832 254.42ZM229.585 170.269L252.721 156.912C253.877 151.905 254.739 146.786 255.289 141.574L235.092 153.234C233.713 159.108 231.864 164.8 229.585 170.269ZM113.837 237.097L90.6715 250.471C85.6737 248.95 80.8055 247.131 76.0876 245.035L96.3025 233.364C101.969 235.067 107.827 236.324 113.837 237.097ZM4.47535 161.673C3.38097 157.649 2.47797 153.546 1.77673 149.375L18.6102 139.656C19.0627 143.952 19.7625 148.174 20.695 152.309L4.47535 161.673ZM202.683 47.2378C199.548 44.3376 196.245 41.6176 192.788 39.0944L209.607 29.3838C212.841 32.0629 215.941 34.898 218.895 37.8776L202.683 47.2378ZM181.404 31.8105L199.137 21.5721C195.335 19.0256 191.389 16.6774 187.313 14.5424L168.2 25.5772C172.758 27.3674 177.167 29.453 181.404 31.8105ZM0.270447 136.388L18.0154 126.143C18.0971 121.207 18.5038 116.351 19.2152 111.594L0.110865 122.624C0.0371971 124.407 0 126.199 0 128C0 130.818 0.0910766 133.615 0.270447 136.388ZM52.1704 231.131C55.7681 233.781 59.5095 236.247 63.3807 238.515L81.8232 227.868C77.5471 225.887 73.4197 223.64 69.4622 221.148L52.1704 231.131ZM237.924 123.886C237.975 125.251 238 126.623 238 128C238 131.356 237.85 134.676 237.556 137.955L255.998 127.308C255.974 122.777 255.715 118.302 255.232 113.894L237.924 123.886ZM253.193 101.214L236.657 110.761C235.998 106.574 235.103 102.464 233.985 98.4477L250.012 89.1945C251.26 93.1223 252.324 97.1323 253.193 101.214ZM58.7539 213.474L42.2295 223.014C39.1527 220.235 36.2115 217.308 33.4171 214.246L49.4394 204.995C52.3791 207.994 55.4891 210.826 58.7539 213.474Z" fill="#B3BDC7"/>
  <circle cx="128" cy="128" r="100" fill="white"/>
  <path fill-rule="evenodd" clip-rule="evenodd" d="M128.374 28.0041C72.9437 27.5041 28.4994 72.5031 28 127.502C28 183 72.9437 228 127.875 228C183.034 228.137 227.861 183.479 228 128.252C228.137 73.0246 183.534 28.1422 128.374 28.0041ZM175.815 73.0031C173.817 74.503 171.32 74.003 169.323 72.0031C167.825 70.5031 166.826 69.0031 165.274 67.5032C162.278 63.4492 157.783 63.0033 154.288 66.5032C151.573 69.2392 149.373 72.4437 147.796 75.9624C144.3 86.4622 141.803 97.4619 138.348 108.394L165.814 112.448L163.816 119.948L137.322 116.002L134.367 132.056L162.831 136.11L160.834 143.609L132.869 139.556C130.871 146.055 129.872 153.069 127.375 159.055C124.879 166.055 122.382 173.055 119.385 179.555C115.337 188.054 108.399 194.054 98.9111 195.554C93.418 196.554 87.4255 196.054 82.9312 192.554C81.3419 191.546 80.2533 189.911 79.9346 188.054C79.9164 185.942 80.8302 183.929 82.4318 182.554C83.4305 182.055 85.9274 182.554 87.4255 183.054C89.0505 184.668 90.4164 186.523 91.4745 188.554C94.4708 192.608 98.4658 193.054 102.461 190.054C106.955 186 109.452 180.595 110.95 175.055C113.946 163.055 116.943 151.555 119.439 139.556V137.461L92.9726 133.407L93.9714 125.907L121.437 129.961L124.879 114.489L96.4143 110.002L97.413 102.002L126.876 106.056C127.875 103.056 128.374 100.556 129.373 98.0565C131.87 89.0567 134.367 80.0569 140.359 72.0571C146.352 64.0573 153.343 59.0574 163.83 59.5574C168.363 59.3869 172.743 61.2143 175.815 64.5573C176.592 65.1881 177.123 66.0734 177.313 67.0573C177.313 69.0032 177.313 71.5031 175.815 73.0031Z" fill="#0090FF"/>
</svg>

<svg width="256" height="256" fill="none" xmlns="http://www.w3.org/2000/svg"><path fill-rule="evenodd" clip-rule="evenodd" d="M18.872 194.93a128.152 128.152 0 0 0 6.775 9.945l15.724-9.078a110.243 110.243 0 0 1-6.902-9.872l-15.597 9.005ZM224.936 75.96a109.765 109.765 0 0 1 5.114 10.903l15.725-9.078a127.547 127.547 0 0 0-5.242-10.83l-15.597 9.005Zm9.376-19.27-15.632 9.025a110.62 110.62 0 0 0-7.401-9.583l15.83-9.14a128.423 128.423 0 0 1 7.203 9.698ZM28.706 175.396l-15.632 9.025a127.242 127.242 0 0 1-4.81-11.078l15.832-9.141a109.304 109.304 0 0 0 4.61 11.194ZM1.565 107.928a127.23 127.23 0 0 1 3.563-15.914l25.117-14.5a109.297 109.297 0 0 0-7.41 18.134l-21.27 12.28Zm44.653-53.493C61.514 37.44 82.03 25.24 105.242 20.357L139.603.52A129.643 129.643 0 0 0 128 0C76.474 0 32.06 30.445 11.763 74.327l34.455-19.892Zm106.34-33.683a110.018 110.018 0 0 0-19.436-2.635L158.267 3.6a127.021 127.021 0 0 1 15.585 4.859l-21.294 12.294ZM107.832 254.42A128.93 128.93 0 0 0 128 256c54.58 0 101.181-34.161 119.589-82.268l-29.067 16.781c-18.269 26.405-47.793 44.428-81.637 47.133l-29.053 16.774Zm121.753-84.151 23.136-13.357a127.767 127.767 0 0 0 2.568-15.338l-20.197 11.66a109.097 109.097 0 0 1-5.507 17.035Zm-115.748 66.828-23.166 13.374a126.97 126.97 0 0 1-14.583-5.436l20.215-11.671a109.37 109.37 0 0 0 17.534 3.733ZM4.475 161.673a127.248 127.248 0 0 1-2.698-12.298l16.833-9.719a109.767 109.767 0 0 0 2.085 12.653l-16.22 9.364ZM202.683 47.238c-3.135-2.9-6.438-5.62-9.895-8.144l16.819-9.71a128.643 128.643 0 0 1 9.288 8.494l-16.212 9.36ZM181.404 31.81l17.733-10.239a127.843 127.843 0 0 0-11.824-7.03L168.2 25.577a109.447 109.447 0 0 1 13.204 6.233ZM.27 136.387l17.745-10.245c.082-4.936.489-9.792 1.2-14.549L.111 122.624a130.214 130.214 0 0 0 .16 13.764Zm51.9 94.743c3.598 2.65 7.34 5.116 11.21 7.384l18.443-10.647a109.882 109.882 0 0 1-12.36-6.72L52.17 231.13Zm185.754-107.245a111.448 111.448 0 0 1-.368 14.069l18.442-10.647a129.416 129.416 0 0 0-.766-13.414l-17.308 9.992Zm15.269-22.672-16.536 9.547a109.254 109.254 0 0 0-2.672-12.313l16.027-9.253a127.069 127.069 0 0 1 3.181 12.019Zm-194.44 112.26-16.523 9.54a128.92 128.92 0 0 1-8.813-8.768l16.022-9.251c2.94 2.999 6.05 5.831 9.315 8.479Z" fill="#B3BDC7"/><circle cx="128" cy="128" r="100" fill="#fff"/><path fill-rule="evenodd" clip-rule="evenodd" d="M128.374 28.004c-55.43-.5-99.875 44.5-100.374 99.498C28 183 72.944 228 127.875 228c55.159.137 99.986-44.521 100.125-99.748.137-55.227-44.466-100.11-99.626-100.248Zm47.441 45c-1.998 1.499-4.495.999-6.492-1-1.498-1.5-2.497-3-4.049-4.5-2.996-4.055-7.491-4.5-10.986-1a32.025 32.025 0 0 0-6.492 9.458c-3.496 10.5-5.993 21.5-9.448 32.432l27.466 4.054-1.998 7.5-26.494-3.946-2.955 16.054 28.464 4.054-1.997 7.499-27.965-4.053c-1.998 6.499-2.997 13.513-5.494 19.499-2.496 7-4.993 14-7.99 20.5-4.048 8.499-10.986 14.499-20.474 15.999-5.493 1-11.486.5-15.98-3a6.662 6.662 0 0 1-2.996-4.5 7.168 7.168 0 0 1 2.497-5.5c.998-.499 3.495 0 4.993.5a22.225 22.225 0 0 1 4.05 5.5c2.996 4.054 6.99 4.5 10.986 1.5 4.494-4.054 6.991-9.459 8.489-14.999 2.996-12 5.993-23.5 8.489-35.499v-2.095l-26.466-4.054.998-7.5 27.466 4.054 3.442-15.472-28.465-4.487.999-8 29.463 4.054c.999-3 1.498-5.5 2.497-8 2.497-9 4.994-18 10.986-25.999 5.993-8 12.984-13 23.471-12.5a15.486 15.486 0 0 1 11.985 5 4.262 4.262 0 0 1 1.498 2.5c0 1.946 0 4.446-1.498 5.946Z" fill="#0090FF"/></svg>
